resources/svg/regular/message-square-add.svg

<svg xmlns="http://www.w3.org/2000/svg" fill="currentColor" stroke="none" viewBox="0 0 24 24"><path d="M16 2H8C4.691 2 2 4.691 2 8v13a1 1 0 0 0 1 1h13c3.309 0 6-2.691 6-6V8c0-3.309-2.691-6-6-6zm4 14c0 2.206-1.794 4-4 4H4V8c0-2.206 1.794-4 4-4h8c2.206 0 4 1.794 4 4v8z"/><path d="M13 7h-2v4H7v2h4v4h2v-4h4v-2h-4z"/></svg>

<svg xmlns="http://www.w3.org/2000/svg" fill="currentColor" stroke="none" viewBox="0 0 24 24"><path d="M16,2H8C4.691,2,2,4.691,2,8v13c0,0.553,0.447,1,1,1h13c3.309,0,6-2.691,6-6V8C22,4.691,19.309,2,16,2z M20,16 c0,2.206-1.794,4-4,4H4V8c0-2.206,1.794-4,4-4h8c2.206,0,4,1.794,4,4V16z"/><path d="M13 7L11 7 11 11 7 11 7 13 11 13 11 17 13 17 13 13 17 13 17 11 13 11z"/></svg>
